!!!COM: Bach, Johann Sebastian
!!!CDT: 1685/02/21/-1750/07/28/
!!!OTL@@DE: Werde munter, mein Gem&uuml;te
!!!SCT: BWV 55/5
!!!PC#: 95
!!!AGN: chorale
**harm	**kern	**kern	**kern	**kern
*	*ICvox	*ICvox	*ICvox	*ICvox
*	*Ibass	*Itenor	*Ialto	*Isoprn
*	*I"Bass	*I"Tenor	*I"Alto	*I"Soprano
*>[A,A,B]	*>[A,A,B]	*>[A,A,B]	*>[A,A,B]	*>[A,A,B]
*>norep[A,B]	*>norep[A,B]	*>norep[A,B]	*>norep[A,B]	*>norep[A,B]
*>A	*>A	*>A	*>A	*>A
*	*	*oclefC4	*oclefC3	*oclefC1
*	*clefF4	*clefGv2	*clefG2	*clefG2
*k[b-e-]	*k[b-e-]	*k[b-e-]	*k[b-e-]	*k[b-e-]
*B-:	*B-:	*B-:	*B-:	*B-:
*M4/4	*M4/4	*M4/4	*M4/4	*M4/4
*met(c)	*met(c)	*met(c)	*met(c)	*met(c)
*MM100	*MM100	*MM100	*MM100	*MM100
=1-	=1-	=1-	=1-	=1-
I	4B-	4B-	4f	4dd
IV6	4G	4B-	4g	4ee-
I6	4D	4B-	4b-	4ff
vi7	4G	4d	4b-	4ff
=2	=2	=2	=2	=2
ii7	8CL	8e-L	8b-L	8ee-L
viio6	8CJ	8e-J	8aJ	8ee-J
I6	4D	4f	4b-	4dd
V;	2F;	2f;	2a;	2cc;
=3	=3	=3	=3	=3
I	4BB-	4f	4b-	4dd
viio6	4C	4c	4a	4ee-
I6	4D	4A	4f	4ff
IV6	4G	4B-	4g	4ee-
=4	=4	=4	=4	=4
ii65	4E-	4B-	4g	4cc
V	4F	4A	4f	4cc
I;	2BB-;	2d;	2f;	2b-;
=5:|!	=5:|!	=5:|!	=5:|!	=5:|!
*>B	*>B	*>B	*>B	*>B
V	4F	4A	4f	4cc
c:viio6	4D	4B	4f	4dd
i	4C	4c	4e-	4ee-
i6	4E-	4c	4g	4ee-
=6	=6	=6	=6	=6
ii%65	4F	4c	4a-	4dd
V7	4G	4B	4f	4dd
i;	2C;	2G;	2e-;	2cc;
=7	=7	=7	=7	=7
i	4c	4c	4g	4ee-
E-:V	8B-L	8dL	8b-L	8ffL
V2	8A-J	8dJ	8b-J	8ffJ
I6	4G	4e-	4b-	4gg
I	4E-	4e-	4b-	4gg
=8	=8	=8	=8	=8
ii65	4A-	4e-	4cc	4ff
V7	4B-	4d	4a-	4ff
I;	2E-;	2B-;	2g;	2ee-;
=9	=9	=9	=9	=9
B-:vi	4G	4B-	4g	4dd
IV	4E-	4B-	4g	4ee-
I6	4D	4B-	4f	4ff
vi7	4G	4B-	4d	4ff
=10	=10	=10	=10	=10
ii7	8CL	8B-L	8e-L	8ee-L
viio6	8CJ	8AJ	8e-J	8ee-J
I6	4D	4B-	4f	4dd
V;	2F;	2f;	2a;	2cc;
=11	=11	=11	=11	=11
I	4BB-	4f	4b-	4dd
viio6	4C	4e-	4a	4ee-
I6	4D	4d	4f	4ff
IV6	4G	4B-	4g	4ee-
=12	=12	=12	=12	=12
ii65	4E-	4B-	4g	4cc
V	4F	4A	4f	4cc
I;	2BB-;	2d;	2f;	2b-;
==	==	==	==	==
*-	*-	*-	*-	*-
!!!YOR1: 371 vierstimmige Choralges&auml;nge von Johann Sebastian Bach, 
!!!YOR2: 4th ed. by Alfred D&ouml;rffel (Leipzig: Breitkopf und H&auml;rtel, 
!!!YOR2: c.1875). 178 pp. Plate "V.A.10".  reprint: J.S. Bach, 371 Four-Part 
!!!YOR4: Chorales (New York: Associated Music Publishers, Inc., c.1940).
!!!SMS: B&H, 4th ed, Alfred D&ouml;rffel, c.1875, plate V.A.10
!!!EED:  Craig Stuart Sapp
!!!EEV:  2009/05/22
